svgs/duotone/arrow-right-to-line.svg

<svg xmlns="http://www.w3.org/2000/svg" viewBox="0 0 448 512"><!-- Font Awesome Pro 6.0.0-alpha2 by @fontawesome - https://fontawesome.com License - https://fontawesome.com/license (Commercial License) --><defs><style>.fa-secondary{opacity:.4}</style></defs><path d="M384 96V416C384 433.688 398.312 448 416 448S448 433.688 448 416V96C448 78.312 433.688 64 416 64S384 78.312 384 96Z" class="fa-secondary"/><path d="M137.375 105.375C149.875 92.875 170.125 92.875 182.625 105.375L310.625 233.375C323.125 245.875 323.125 266.125 310.625 278.625L182.625 406.625C170.125 419.125 149.875 419.125 137.375 406.625C131.125 400.375 128 392.188 128 384S131.125 367.625 137.375 361.375L210.75 288H32C14.312 288 0 273.688 0 256S14.312 224 32 224H210.75L137.375 150.625C124.875 138.125 124.875 117.875 137.375 105.375Z" class="fa-primary"/></svg>

<svg xmlns="http://www.w3.org/2000/svg" viewBox="0 0 448 512"><!--! Font Awesome Pro 6.3.0 by @fontawesome - https://fontawesome.com License - https://fontawesome.com/license (Commercial License) Copyright 2023 Fonticons, Inc. --><defs><style>.fa-secondary{opacity:.4}</style></defs><path class="fa-primary" d="M137.4 105.4c12.5-12.5 32.75-12.5 45.25 0l128 128c12.5 12.5 12.5 32.75 0 45.25l-128 128c-12.5 12.5-32.75 12.5-45.25 0C131.1 400.4 128 392.2 128 384s3.125-16.38 9.375-22.62L210.8 288H32C14.31 288 0 273.7 0 256s14.31-32 32-32h178.8L137.4 150.6C124.9 138.1 124.9 117.9 137.4 105.4z"/><path class="fa-secondary" d="M384 96v320c0 17.69 14.31 32 32 32s32-14.31 32-32V96c0-17.69-14.31-32-32-32S384 78.31 384 96z"/></svg>
